icons/ArrowUpFromLine_filled.svg

<svg width="24" height="24" viewBox="0 0 24 24" fill="none" xmlns="http://www.w3.org/2000/svg">
<path fill-rule="evenodd" clip-rule="evenodd" d="M11.1161,3.11612c0.4882,-0.48816 1.2796,-0.48816 1.7678,0l5,5c0.4881,0.48815 0.4881,1.27961 0,1.76776c-0.4882,0.48812 -1.2796,0.48812 -1.7678,0l-2.8661,-2.86611v7.48223c0,0.6904 -0.5596,1.25 -1.25,1.25c-0.6904,0 -1.25,-0.5596 -1.25,-1.25v-7.48223l-2.86612,2.86611c-0.48815,0.48812 -1.27961,0.48812 -1.76776,0c-0.48816,-0.48815 -0.48816,-1.27961 0,-1.76776zM19,17.75c0.6904,0 1.25,0.5596 1.25,1.25c0,0.6904 -0.5596,1.25 -1.25,1.25h-14c-0.69036,0 -1.25,-0.5596 -1.25,-1.25c0,-0.6904 0.55964,-1.25 1.25,-1.25z" fill="#002B51"/>
</svg>

<svg width="24" height="24" viewBox="0 0 24 24" fill="none" xmlns="http://www.w3.org/2000/svg">
<path fill-rule="evenodd" clip-rule="evenodd" d="M11.1161 3.11612C11.6043 2.62796 12.3957 2.62796 12.8839 3.11612L17.8839 8.11612C18.372 8.60427 18.372 9.39573 17.8839 9.88388C17.3957 10.372 16.6043 10.372 16.1161 9.88388L13.25 7.01777V14.5C13.25 15.1904 12.6904 15.75 12 15.75C11.3096 15.75 10.75 15.1904 10.75 14.5V7.01777L7.88388 9.88388C7.39573 10.372 6.60427 10.372 6.11612 9.88388C5.62796 9.39573 5.62796 8.60427 6.11612 8.11612L11.1161 3.11612ZM5 17.75C4.30964 17.75 3.75 18.3096 3.75 19C3.75 19.6904 4.30964 20.25 5 20.25H19C19.6904 20.25 20.25 19.6904 20.25 19C20.25 18.3096 19.6904 17.75 19 17.75H5Z" fill="#002B51"/>
</svg>
